src/assets/right-arrow.svg

<svg fill="none" viewBox="0 0 25 24" xmlns="http://www.w3.org/2000/svg"><path clip-rule="evenodd" d="m15.0023 7.26521c.4058-.37461 1.0385-.34931 1.4131.05651l3.2308 3.49998c.3536.383.3536.9735 0 1.3565l-3.2308 3.5001c-.3746.4058-1.0072.4311-1.4131.0565-.4058-.3746-.4311-1.0072-.0565-1.4131l1.6816-1.8217h-9.71602c-.55229 0-1-.4477-1-1s.44771-1 1-1h9.71602l-1.6816-1.82171c-.3746-.40582-.3493-1.03848.0565-1.41308z" fill="#fcfcfd" fill-rule="evenodd"/></svg>

<svg xmlns="http://www.w3.org/2000/svg" fill="none" viewBox="0 0 25 24">
    <path fill="#FCFCFD" fill-rule="evenodd" d="M15.0023 7.26521C15.4081 6.8906 16.0408 6.9159 16.4154 7.32172L19.6462 10.8217C19.9998 11.2047 19.9998 11.7952 19.6462 12.1782L16.4154 15.6783C16.0408 16.0841 15.4082 16.1094 15.0023 15.7348C14.5965 15.3602 14.5712 14.7276 14.9458 14.3217L16.6274 12.5L6.91138 12.5C6.35909 12.5 5.91138 12.0523 5.91138 11.5C5.91138 10.9477 6.35909 10.5 6.91138 10.5L16.6274 10.5L14.9458 8.67829C14.5712 8.27247 14.5965 7.63981 15.0023 7.26521Z" clip-rule="evenodd"/>
</svg>
